X:1
T:Johnny Booker
M:4/4
L:1/4
K:G
 D| G/2G/2 G A A| B B c3/2 c/2| B B A A| G G/2G/2 D| z/2 D/2|G/2-G/2 G A A|\
 B B c3/2 c/2| B B/2B/2 A/2A/2 A| G G D| z| G G/2G/2 A/2A/2 A| G G/2G/2 D2|\
 G G/2G/2 A/2A/2 A| G3||
